X:112
T:All in the Wrong
M:6/8
L:1/8
B:Thompson's Compleat Collection of 200 Favourite Country Dances, vol. 2 (London, 1765)
Z:Transcribed and edited by Flynn Titford-Mock, 2007
Z:abc's:AK/Fiddler's Companion
K:G
dBG gfe | ddd dcB | cAF FAc | ccc cBA | dBG ggg | eee ^ceA | A^ce g2f | ed^c d3 :|
|: dcB ccc | cBA BBB | BAG FAc | c2B "tr"A3 | dBG gfe | ddd d2c | Bdg edc | BcA G3 :|

